X: 1922
T: Arran Boat Song, The
R: waltz
M: 3/4
K: Edorian
|:E3 F E2|B3 c d2|A3 F D2|A3 F D2|
E3 F E2|B3 c d2|A F3 D2|E6:|
e3 f e2|g3 f e2|d3 B G2|A3 F D2|
e3 f e2|g3 f e2|d B3 d2|e6|
e3 f e2|g3 f e2|d3 B G2|A3 F D2|
E3 F E2|B3 c d2|A F3 D2|E6||

